X: 157
T: Dawanwan kaihua
L: 1/8
M: 2/4
K: G
e e/ d/ B d [I:setbarnb 1]| 
e e/ d/ B d | 
e e/ g/ B/ d/ B/ d/ | 
e4 | 
d d/ e/ a f | 
e3d | 
B e G A | 
B e G A | 
G> A d F | 
E4 |]

@@@ Tune index: 9031
